X:1
T:Praise Ye Jehovah (Taylor)
T:Praise Ye Jehovah (Taylor)
T:Theodore E. Perkins
T:Alfred Taylor, 1896
T:Public Domain Courtesy of the Cyber Hymnal™
T:Public Domain Courtesy of the Cyber Hymnal™
C:Theodore E. Perkins
Z:Public Domain
Z:Courtesy of the Cyber Hymnal™
%%score ( 1 2 ) ( 3 4 )
L:1/8
Q:1/4=115
M:6/8
K:C
V:1 treble 
V:2 treble 
V:3 bass 
V:4 bass 
V:1
 [EG]3 [EG]2 [FA] | [EG]3 [CE]3 | [Ec]2 [Ec] [Ec]2 [Fd] | ([Ac]2 [GB]) [FA]3 | [EG]3 [EG]2 [FA] | %5
w: 1.~Praise ye Je-|ho- vah,|praise the Lord most|ho- * ly,|Who cheers the|
w: 2.~Praise ye the|Lord for|all His lov- ing|kind- * ness,|And all the|
w: 3.~Praise ye Je-|ho- vah!|source of ev- ery|bless- * ing—|Be- fore His|
w: 4.~Praise ye the|Fa- ther!|God the Lord who|gave * us,|With full and|
 [EG]3 [CE]3 | [B,D]2 [CE] [DF]2 [CE] | [B,D]6 |S [EG]3 [EG]2 [FA] | [EG]3 [CE]3 | %10
w: con- trite,|girds with strength the|weak;|Praise Him who|will with|
w: ten- der|mer- cies He hath|shown;|Praise Him who|par- dons|
w: gifts earth’s|rich- est boons are|dim;|Rest- ing in|Him, His|
w: per- fect|love His on- ly|Son;|Praise ye the|Son who|
 [Ec]2 [Ec] [Ec]2 [Fd] | ([Ac]2 [GB]) [FA]3 | [EG]3 [Gc]2 [Gd] | [Ge]3 [Ec]3 | %14
w: glo- ry crown the|low- * ly,|And with sal-|va- tion|
w: all our sin and|blind- * ness,|And calls us|sons, and|
w: peace and joy pos-|sess- * ing,|All things are|ours, for|
w: died Him- self to|save * us!|Praise ye the|Spir- it!|
 [Fe]2 [Fe] [Ec]2 [DB] | [Ec]6!fine! |:"^Semi-Chorus" [Bd]2 [Bd] [Bd]2 [Bd] | %17
w: beau- ti- fy the|meek.||
w: takes us for His|own.|Praise Him for His|
w: we have all in|Him.|Praise Him, for He|
w: praise the Three in|One!||
 [Bd]2 [Ac] [GB]2 [Bd] |1 [Ac]2 [GB] [Ac]2 [Bd] | ([Ac]3 [GB]3) :|2 [^FA] || G6!D.S.! |] %22
w: |||||
w: con- stant care, His|ev- er pre- sent|love; *|||
w: hears our prayer, And|an- swers from ~|~ *|a-|bove.|
w: |||||
V:2
 x6 | x6 | x6 | x6 | x6 | x6 | x6 | x6 | x6 | x6 | x6 | x6 | x6 | x6 | x6 | x6 |: x6 | x6 |1 x6 | %19
 x6 :|2 x || G6 |] %22
V:3
 [C,G,]3 [C,C]2 [C,C] | [C,C]3 [C,G,]3 | [C,G,]2 [C,G,] [C,C]2 [C,C] | [F,C]3 [F,C]3 | %4
w: ~ ~ ~|~ ~|~ ~ ~ ~|~ ~|
 [C,C]3 [C,C]2 [C,C] | [C,C]3 [C,G,]3 | [G,,G,]2 [G,,G,] [G,,G,]2 [G,,G,] | [G,,G,]6 | %8
w: ~ ~ ~|~ ~|~ ~ ~ ~|~|
 [C,G,]3 [C,C]2 [C,C] | [C,C]3 [C,G,]3 | [C,G,]2 [C,G,] [C,C]2 [C,C] | ([F,C]2 [F,C]) [F,C]3 | %12
w: D.S.~Praise God the|Fa- ther,|praise the ev- er|blessèd * Son,|
 [C,C]3 [E,C]2 [G,B,] | C3 [C,G,]3 | [F,A,]2 [F,A,] G,2 G, | [C,G,]6 |: G,2 G, G,2 G, | %17
w: Praise God the|Spir- it,|praise the Three in|One!||
 G,2 G, G,2 G, |1 D,2 D, D,2 D, | G,6 :|2 D, || G,,6 |] %22
w: |||||
V:4
 x6 | x6 | x6 | x6 | x6 | x6 | x6 | x6 | x6 | x6 | x6 | x6 | x6 | C3 x3 | x3 G,2 G, | x6 |: x6 | %17
 x6 |1 x6 | x6 :|2 x || x6 |] %22

